!!!!SEGMENT: pl-kc--40102-iii-1-saf--001-009_zielenski-mikolaj--offertoria-totius-anni-in-festo-s-antonij-abbatis-desiderium-animae-eius.krn
!!!cenid: 16xx:1487
!!!COM: Zieleński, Mikołaj
!!!COM-rismid: pe30013481
!!!CDT:
!!!CNT: Polish
!!!GTL: Offertoria totius anni
!!!OTL: In festo S. Antonij Abbatis/Desiderium animae eius
!!!OMV: 009
!!!PDT: 1611
!!!AGN:
!!!SMS-siglum: PL-Kc
!!!SMS-shelfmark: 40102 III/1 Saf.
!!!SMS-shelfwork: 001-009 G
!!!SMS-variant:
!!!SMS-altvar:
!!!NIFC-rismid: 990069886
!!!URL-scan: https://cyfrowe.mnk.pl/dlibra/publication/24235/edition/23926/content?ref=desc
!!!ONB-nifc: UWAGA: str. 10-11. Uwaga: W xml metrum 2/1 do źródłowego C| i odpowiednio 3/1 do 3/2
!!!key: F
**kern	**kern	**kern	**kern
*group1	*group1	*group1	*group1
*part4	*part3	*part2	*part1
*staff4	*staff3	*staff2	*staff1
*I""Organo	*I""Organo	*I""Organo	*I""Organo
*I''org	*I''org	*I''org	*I''org
*Iorg	*Iorg	*Iorg	*Iorg
*ICklav	*ICklav	*ICklav	*ICklav
*clefF4	*clefC1	*clefF4	*clefC1
*k[b-]	*k[b-]	*k[b-]	*k[b-]
*F:	*F:	*F:	*F:
*M3/2	*M3/2	*M3/2	*M3/2
=1	=1	=1	=1
!	!	!LO:TX:a:t=Deſiderium animae eius.	!LO:TX:a:t=In feſto S. Antonij Abbatis. A 8.
00.r	00.r	0F	0cc
.	.	1F	1cc
=2-	=2-	=2-	=2-
.	.	1.FF	1.a
.	.	2FF/	2a\
.	.	1AA	1cc
=3-	=3-	=3-	=3-
0.r	0.r	1BB-	1b-
.	.	1BB-	1b-
.	.	1C	1g
=4-	=4-	=4-	=4-
0F	0cc	0FF	0a
1F	1cc	1FF	1a
=5	=5	=5	=5
1.FF	1.a	00.r	00.r
2FF/	2a\	.	.
1AA	1cc	.	.
=6-	=6-	=6-	=6-
1BB-	1b-	.	.
1BB-	1b-	.	.
1C	1g	.	.
=7-	=7-	=7-	=7-
0FF	0a	0F	0cc
1FF	1a	1F	1cc
=8-	=8-	=8-	=8-
0.r	0.r	1.FF	1.a
.	.	2FF/	2a\
.	.	1AA	1cc
=9	=9	=9	=9
00.r	00.r	1BB-	1b-
.	.	1BB-	1b-
.	.	1C	1g
=10-	=10-	=10-	=10-
.	.	0FF	0a
.	.	1FF	1a
=11-	=11-	=11-	=11-
00.r	00.r	0F	0a
.	.	1D	1dd
=12-	=12-	=12-	=12-
.	.	1.G	1.b-
.	.	2F\	2a\
.	.	1E-X	1g
=13	=13	=13	=13
0.r	0.r	1C	1.cc
*	*	*lig	*
.	.	1G	.
!	!	!	!LO:N:acc=#
.	.	.	4bn\
.	.	.	4a\
.	.	1GG	1b
*	*	*Xlig	*
=14-	=14-	=14-	=14-
0C	0g	0C	0cc
1GG	1b-	1r	1r
=15-	=15-	=15-	=15-
1.AA	1.a	00.r	00.r
2BB-/	4g/	.	.
.	4f/	.	.
1C	1e	.	.
=16-	=16-	=16-	=16-
1FF	1.f	.	.
0C	.	.	.
.	4e/	.	.
.	4d/	.	.
.	1e	.	.
=17	=17	=17	=17
0.FF	0.f	0.r	0.r
=18-	=18-	=18-	=18-
0FF	0cc	0C	0ff
1AA	1cc	1C	1ff
=19-	=19-	=19-	=19-
1.BB-	1.b-	1.D	1.dd
2BB-/	2b-\	2D/	2dd\
1FF	1cc	1C	1ff
=20-	=20-	=20-	=20-
1C	1cc	1E	1ee
1C	1cc	1C	1ee
1BB-	1g	1D	1dd
=21	=21	=21	=21
*M2/1	*M2/1	*M2/1	*M2/1
*met(C|)	*met(C|)	*met(C|)	*met(C|)
1AA	1a	1E	1cc#X
2AA/	2a\	2E\	2cc#\
1D	1a	1D	1dd
=22-	=22-	=22-	=22-
.	.	.	.
2BB-/	2b-\	2D/	2dd\
[y1FF	2.cc\	2.C/	2.ff\
.	4b-\	8D\	4ee\
.	.	8E\	.
=23	=23	=23	=23
!LO:N:xstem:cue:vis=4	!	!	!
2FF/]	2a\	4F\	4dd\
.	.	4FF/	4cc\
2CC/	2g/	2C/	2.cc\
1GG	1g	1D	.
!	!	!	!LO:N:acc=#
.	.	.	8bn\
.	.	.	8a\
.	.	.	2b\
=24-	=24-	=24-	=24-
1CC	1g	1C	1cc
2r	2r	1r	1r
[<2C/	[<2g/	.	.
=25	=25	=25	=25
2C/]	2g/]	1r	1r
2C/	2g/	.	.
1FF	1a	2r	2r
.	.	1F	1cc
=26-	=26-	=26-	=26-
0r	0r	.	.
.	.	2F\	2cc\
.	.	2.BB-/	2.dd\
.	.	4B-\	4dd\
=27	=27	=27	=27
00r	00r	4.F\	4.cc\
.	.	8F\	8cc\
.	.	4F\	4cc\
.	.	4D/	4dd\
.	.	4.E-X\	4.b-\
.	.	8E-\	8b-\
.	.	4E-\	4b-\
.	.	4C/	4cc\
=28-	=28-	=28-	=28-
.	.	2D/	2a\
.	.	4D/	4a\
.	.	2G\	2b-\
.	.	4G\	4b-\
!	!	!	!LO:SIC:v:s=[<2ee-\
.	.	4.C/	[<2ee\
.	.	8D/	.
=29	=29	=29	=29
!	!	!	!LO:SIC:v:s=2ee-\]
0r	0r	2E-X\	2ee\]
.	.	2BB-/	2dd\
.	.	1F	1cc
=30-	=30-	=30-	=30-
1r	1r	1BB-	1b-
2r	2r	2r	2r
[<2BB-/	[<2b-\	[<2D/	[<2dd\
=31	=31	=31	=31
2BB-/]	2b-\]	2D/]	2dd\]
2BB-/	2b-\	2D/	2b-\
2.FF/	2.a\	1C	1cc
4FF/	4a\	.	.
=32-	=32-	=32-	=32-
4.C/	4.g/	0r	0r
8C/	8g/	.	.
4C/	4g/	.	.
4AA/	4a\	.	.
4.BB-/	4.f/	.	.
8BB-/	8f/	.	.
4BB-/	4f/	.	.
4GG/	8d/	.	.
!	!LO:TX:a:t=P:problem:brak początku ligatury	!	!
.	[8g/	.	.
*custos:D	*custos:g	*custos:G	*custos:dd
!!LO:LB:g=original
=33	=33	=33	=33
1D	4g/]	00r	00r
.	8f#X/	.	.
.	8e/	.	.
.	2f#/	.	.
4GG/	4g/	.	.
2GG/	2b-\	.	.
4D/	4a\	.	.
=34-	=34-	=34-	=34-
2.BB-/	2.dd\	.	.
4C/	4cc\	.	.
1D	4.b-\	.	.
.	16a\	.	.
.	16g\	.	.
.	2a\	.	.
=35	=35	=35	=35
2GG/	2g/	2r	2r
1GG	1b-	1G	1dd
2GG/	2b-\	2G\	2dd\
=36-	=36-	=36-	=36-
2DD/	2a\	2F\	2ff\
2DD/	4dd\	1A	2ff\
.	2dd\	.	.
1AA	.	.	1ee
.	8cc#X\	.	.
.	8b-\	.	.
.	2cc#\	2AA/	.
=37	=37	=37	=37
1DD	1dd	2D/	2dd\
.	.	1D	1ff
1r	1r	.	.
.	.	2A\	2ee\
=38-	=38-	=38-	=38-
0r	0r	4B-\	1dd
.	.	4BB-/	.
.	.	4D/	.
.	.	4E\	.
.	.	2F\	2cc\
.	.	2D/	2dd\
=39	=39	=39	=39
0r	0r	2.E-X\	2.b-\
.	.	4E-\	4b-\
.	.	2E-\	2b-\
.	.	2C/	2cc\
=40-	=40-	=40-	=40-
2r	2r	1BB-	1f
1BB-	1b-	.	.
.	.	1r	1r
2F\	2a\	.	.
=41	=41	=41	=41
4G\	1g	00r	00r
4GG/	.	.	.
4BB-/	.	.	.
4C/	.	.	.
2D/	2f#X/	.	.
!LO:N:acc=#	!	!	!
2BBn/	2g/	.	.
=42-	=42-	=42-	=42-
2.C/	2.e-X/	.	.
4C/	4e-/	.	.
1GG	2d/	.	.
.	[y2g/	.	.
=43	=43	=43	=43
!	!LO:N:xstem:cue	!	!
2.AA/	4g/]	0r	0r
.	4f/	.	.
.	2.f/	.	.
4BB-/	.	.	.
1C	.	.	.
.	8e/	.	.
.	8d/	.	.
.	2e/	.	.
=44-	=44-	=44-	=44-
1FF	1f	2r	2r
.	.	1F	1ff
1r	1r	.	.
.	.	2C/	2ee\
=45	=45	=45	=45
00r	00r	4D/	1dd
.	.	4E\	.
.	.	4F\	.
.	.	4D\	.
.	.	2A\	2cc#X\
!	!	!LO:TX:t=P:problem:# above	!
.	.	2F#X\	2dd\
=46-	=46-	=46-	=46-
.	.	2.G\	2.b-\
.	.	4G\	4b-\
.	.	1D	2a\
.	.	.	[<2dd\
=47	=47	=47	=47
00r	00r	2.E\	4dd\]
.	.	.	4cc\
.	.	.	2.cc\
.	.	4F\	.
.	.	1G	.
!	!	!	!LO:N:acc=#
!	!	!	!LO:TX:t=P:problem:# above
.	.	.	8bn\
.	.	.	8a\
.	.	.	2b\
=48-	=48-	=48-	=48-
.	.	2C/	2.cc\
.	.	2F\	.
.	.	.	4a\
.	.	1E-X	8b-y\
.	.	.	8a\
.	.	.	8g/
.	.	.	8f/
.	.	.	8g/
.	.	.	8a\
.	.	.	8b-\
.	.	.	8cc\
=49	=49	=49	=49
00r	00r	1D	8dd\
.	.	.	8cc\
.	.	.	8b-\
.	.	.	8cc\
.	.	.	8dd\
.	.	.	8ee\
.	.	.	8ff\
.	.	.	8dd\
.	.	1C	8ee\
.	.	.	8dd\
.	.	.	8cc\
.	.	.	8dd\
.	.	.	8ee\
.	.	.	8dd\
.	.	.	8ee\
.	.	.	8cc\
=50-	=50-	=50-	=50-
.	.	1BB-	8dd\
.	.	.	8cc\
.	.	.	8b-\
.	.	.	8cc\
.	.	.	8dd\
.	.	.	8cc\
.	.	.	8dd\
.	.	.	8b-\
.	.	1AA	8cc\
.	.	.	8b-\
.	.	.	8a\
.	.	.	8b-\
.	.	.	8cc\
.	.	.	8b-\
.	.	.	8cc\
.	.	.	8a\
*custos:AA	*custos:cc	*custos:GG	*custos:b
!!LO:LB:g=original
=51	=51	=51	=51
00r	00r	1GG	8b-\
.	.	.	8a\
.	.	.	8g\
.	.	.	8a\
.	.	.	8b-\
.	.	.	8a\
.	.	.	8b-\
.	.	.	8g\
.	.	2.FF/	4a\
.	.	.	4b-\
.	.	.	2.cc\
.	.	4GG/	.
=52-	=52-	=52-	=52-
.	.	4AA/	.
.	.	4BB-/	8b-\
.	.	.	8a\
.	.	4C/	4g\
.	.	8BB-/	4a\
.	.	8AA/	.
.	.	4GG/	4b-\
.	.	4AA/	4cc\
.	.	4BB-/	[y2dd\
.	.	4C/	.
=53	=53	=53	=53
!	!	!	!LO:N:xstem:cue
0r	0r	4D/	4dd\]
.	.	4E\	8cc\
.	.	.	8b-\
.	.	1F	4a\
.	.	.	4g/
.	.	.	4a\
.	.	.	4b-\
.	.	2C/	2.cc\
=54-	=54-	=54-	=54-
1r	1r	1G	.
!	!	!	!LO:TX:t=P:problem:# above
!	!	!	!LO:N:acc=#
.	.	.	8bn\
.	.	.	8a\
.	.	.	2b\
2r	2r	1C	1cc
2AA/	4r	.	.
.	4cc\	.	.
=55	=55	=55	=55
8BB-/	1b-	00r	00r
8AA/	.	.	.
8GG/	.	.	.
8AA/	.	.	.
8BB-/	.	.	.
8C/	.	.	.
8D/	.	.	.
8E\	.	.	.
8F\	1a	.	.
8E\	.	.	.
8D\	.	.	.
8E\	.	.	.
8F\	.	.	.
8E\	.	.	.
8F\	.	.	.
8D\	.	.	.
=56-	=56-	=56-	=56-
8E-X\	1g	.	.
8D/	.	.	.
8C/	.	.	.
8D/	.	.	.
8E-X\	.	.	.
8D\	.	.	.
8E-\	.	.	.
8C/	.	.	.
2D/	2.f/	.	.
2C/	.	.	.
.	4f/	.	.
=57	=57	=57	=57
2C/	2e/	00r	00r
2.GG/	2.g/	.	.
4AA/	8f/	.	.
.	8e/	.	.
4BB-/	4d/	.	.
4C/	4e/	.	.
=58-	=58-	=58-	=58-
2.D/	4f/	.	.
.	4g\	.	.
.	4a\	.	.
8C/	4b-\	.	.
8BB-/	.	.	.
4AA/	2.cc\	.	.
4BB-/	.	.	.
2C/	.	.	.
.	4b-\	.	.
=59	=59	=59	=59
2FF/	2a\	00r	00r
2C/	2.g/	.	.
2AA/	.	.	.
.	4f/	.	.
4GG/	2.f/	.	.
4FF/	.	.	.
=60-	=60-	=60-	=60-
2C/	.	.	.
.	8e/	.	.
.	8d/	.	.
2C/	2e/	.	.
1FF	1f	.	.
=61	=61	=61	=61
1.FF	1.cc	1.C	1.ff
2C/	2cc\	2C/	2ee\
=62-	=62-	=62-	=62-
1GG	1b-	1D	1dd
2AA/	2a\	2AA/	2cc#X\
2DD/	2a\	2F\	2dd\
=63	=63	=63	=63
2.BB-/	2.b-\	2.F\	2.dd\
4BB-/	4b-\	4BB-/	4dd\
2FF/	2a\	2C/	2cc\
2GG/	2g/	2GG/	2b-\
=64-	=64-	=64-	=64-
1DD	1a	2.D/	2a\
.	.	.	2dd\
.	.	4D/	.
1r	1r	(1G	8b-\
.	.	.	8a\
.	.	.	8g\
.	.	.	8a\
.	.	.	8b-\
.	.	.	8cc\
.	.	.	8dd\
.	.	.	8ee\
=65	=65	=65	=65
2r	2r	1F)	1ff
2FF/	2cc\	.	.
8C/	2.cc\	1C	1ee
8D/	.	.	.
8E\	.	.	.
8D/	.	.	.
8C/	.	.	.
8D/	.	.	.
8E\	8b-\	.	.
8F\	8a\	.	.
=66-	=66-	=66-	=66-
1G	1g	2r	2r
.	.	2GG/	2dd\
2r	2r	1G	8b-\
.	.	.	8a\
.	.	.	8g\
.	.	.	8a\
2GG/	2b-\	.	8b-\
.	.	.	8cc\
.	.	.	8dd\
.	.	.	8ee-X\
*custos:BB	*custos:b	*custos:G	*custos:dd
!!LO:PB:g=original
=67	=67	=67	=67
8BB-/	2.b-\	1G	1dd
8AA/	.	.	.
8GG/	.	.	.
8AA/	.	.	.
8BB-/	.	.	.
8C/	.	.	.
8D/	4cc\	.	.
8E-X\	.	.	.
1D	1dd	2r	2r
.	.	2F\	2a\
=68-	=68-	=68-	=68-
1AA	1cc	1A	8cc\
.	.	.	8b-\
.	.	.	8a\
.	.	.	8b-\
.	.	.	8cc\
.	.	.	8dd\
.	.	.	8ee\
.	.	.	8ff\
1r	1r	2A\	2ee\
.	.	2F\	2ff\
=69	=69	=69	=69
00r	00r	2.G\	2.dd\
.	.	4G\	4dd\
.	.	2E-X\	2ee-X\
.	.	2BB-/	2.dd\
=70-	=70-	=70-	=70-
.	.	1C	.
.	.	.	4cc\
.	.	.	2.cc\
.	.	2G\	.
!	!	!	!LO:N:acc=#
.	.	.	8bn\
.	.	.	8a\
.	.	2GG/	2b\
=71	=71	=71	=71
2r	2r	2.C/	2cc\
4r	2cc\	.	2ee\
4C/	.	4C/	.
1FF	1cc	1C	4ff\
.	.	.	8f/
.	.	.	8g/
.	.	.	8a\
.	.	.	8b-\
.	.	.	8cc\
.	.	.	8dd\
=72-	=72-	=72-	=72-
2C/	2cc\	2C/	2ee\
2AA/	2cc\	2C/	2ff\
2.BB-/	2.b-\	2.D/	2.dd\
4BB-/	4b-\	4BB-/	4dd\
=73	=73	=73	=73
2FF/	2a\	2C/	2cc\
2FF/	2.dd\	4BB-/	1ff
.	.	4AA/	.
!	!	!LO:N:acc=#	!
1.GG	.	2BBn/	.
.	4cc\	.	.
.	2.cc\	2C/	2ee\
=74-	=74-	=74-	=74-
.	.	2D/	1dd
!	!LO:N:acc=#	!	!
.	8bn\	.	.
.	8a\	.	.
2GG/	2b\	2GG/	.
1CC	1cc	2.C/	2cc\
.	.	.	2ee\
.	.	4C/	.
=75	=75	=75	=75
2r	2r	2.F\	2.ff\
2FF/	2cc\	.	.
.	.	4F\	4ff\
2.BB-/	2.b-\	1F	1dd
4BB-/	4b-\	.	.
=76-	=76-	=76-	=76-
2GG/	2b-\	2r	2r
2GG/	2g/	2D/	2dd\
2.CC/	2.cc\	2.C/	2.ee\
4CC/	4cc\	4C/	4ee\
=77	=77	=77	=77
2C/	2cc\	2C/	2.cc\
1AA	1cc	1C	.
.	.	.	4dd\
.	.	.	2ee\
4GG/	2cc\	2C/	1ff
4FF/	.	.	.
=78-	=78-	=78-	=78-
2C/	0cc	0C	.
2C/	.	.	4ee\
.	.	.	4dd\
1CC	.	.	2ee\
.	.	.	2ee\
=79-	=79-	=79-	=79-
0FFl	0ccl	0Cl	0ffl
==	==	==	==
*-	*-	*-	*-
!!!system-decoration: *
!!!RDF**kern: > = above
!!!RDF**kern: < = below
!!!RDF**kern: l = terminal long
!!!ENC: Anastazja Marusiak
!!!END: 2021-12-09
!!!ENC: Andrzej Kubiczek
!!!END: 2021-12-18
